src/icons/icons_set_01/030-etoile-contour.svg

<svg height="50" viewBox="0 0 50 50" width="50" xmlns="http://www.w3.org/2000/svg"><path d="m43.2124847 14.9989598c.4301177.4358642.6722995 1.0243002.6722995 1.6385125 0 .6374128-.2608231 1.2470653-.7053054 1.6710863l-8.1424585 8.1421249c-.2118381.2028301-.4109878.4183313-.59637.6452677l1.974796 11.8463854c.2038578.5527556.0714737 1.1280851-.2255544 1.7162547-.3060324.5719743-.8309652.9953675-1.4547658 1.1733651-.6238008.1779977-1.2931218.0953772-1.8181465-.2087584l-6.0691909-3.1723473-4.1480476-2.2148499c-.2504916-.1400632-.5130012-.2568823-.7842224-.3491375l-10.9535402 5.7445228c-.5815752.2907876-1.16584026.4199812-1.72895178.1951174-1.16949891-.310475-1.86556267-1.6161546-1.63070046-2.7657465l1.10250101-6.7647912.84297748-4.7548362c.05883927-.2325919.09475661-.47008.10741319-.7090699l-8.89359803-8.6284772c-.35662626-.3008159-.57522057-.7340239-.60557123-1.1992009-.16105178-1.1613616.50822201-2.283128 1.61426504-2.6896092.07243393-.0266201.14770582-.0447662.22431284-.054076l6.72447959-.8168914 4.63310685-.6789201c.1653858-.0330172.3238294-.0725332.4827104-.1190455.1567423-.0458861.1163631-.0323344.5187928-.1705467.0606572-.0208324.1140314-.0388463.1623271-.0543305l5.3325047-11.16238234c.3967145-.67966502 1.1013962-1.12169258 1.9639062-1.1860626l.1933822.00334166c.9209155-.07547555 1.7819042.46337455 2.0787991 1.23946139l3.0366206 6.07093546 2.0599909 4.25982073c.1336085.267703.4091957.7133698.5840086.9877285l12.2496451 1.7676355c.4638225.0278927.8964281.2437713 1.197584.5975193zm-1.5020637 1.3185244-.0295186-.0327828c.009067.011741.0189431.0226869.0295186.0327828zm-13.2916819-1.8572673c-.7980656-.1151616-1.0091577-.884989-.7590972-1.4331655-.1006389-.1727857-.1981699-.3482636-.2733992-.4990429l-2.0595925-4.25902346-3.0684779-6.14412791c-.0140671-.03620358-.0502588-.05885414-.1706527-.05233987l-.1971354-.00304117c-.1308541.01022858-.2483826.08395099-.2757586.12403499l-5.7863774 12.12038512c-.3454795.7236557-1.146887.7007527-1.5954775.2974634-.162311.0435751-.3340134.0835392-.5395179.123567l-4.70824186.6909675-6.60231121.8023557c-.17793618.1025502-.27798269.3066023-.24354499.5149903l9.21197156 8.9475845c.1819928.1765675.2901133.4156791.3024816.6689468.0274684.562473-.0287727 1.1259061-.1516012 1.6006301l-.825458 4.6704308-1.1073527 6.790307c-.04197478.2061262.09703081.4563867.17895585.4727717.16975402.0146893.24338873-.0133486.30215185-.0425456l11.2951887-5.9239101c.2188178-.1147619.4723754-.1444496.7117852-.0833393.5652655.1442863 1.1093495.3615249 1.6014802.6369178l4.1232352 2.2014319 6.0982099 3.1884651c.0927196.0535309.2031861.0671668.3061398.0377896s.1895901-.0992552.2290112-.1723205c.0424958-.0842326.0744892-.1704382.0866107-.230609-.0018688.0092769.0008308.0610662.0518082.1630209-.0445755-.0891509-.0755719-.1844652-.0919613-.2827823l-2.0654917-12.3904494c-.0440702-.2643678.0198259-.5353616.177356-.7521952.3224377-.443822.6839385-.8579048 1.0646549-1.2221054l8.1434703-8.1430923c.0657722-.0627991.1029832-.1497767.1029832-.2407149 0-.0909381-.037211-.1779157-.1029832-.2407149zm-26.37593585 2.2078304.02313634.0201475c-.00730818-.0070906-.01502527-.013818-.02313634-.0201475z" transform="translate(2.995 3.995238)"/></svg>

<?xml version="1.0" encoding="UTF-8"?>
<svg width="50px" height="50px" viewBox="0 0 50 50" version="1.1" xmlns="http://www.w3.org/2000/svg" xmlns:xlink="http://www.w3.org/1999/xlink">
    <!-- Generator: Sketch 52.4 (67378) - http://www.bohemiancoding.com/sketch -->
    <title>030-etoile-contour</title>
    <desc>Created with Sketch.</desc>
    <g id="030-etoile-contour" stroke="none" stroke-width="1" fill="none" fill-rule="evenodd">
        <g id="Group" transform="translate(2.995000, 3.995238)" fill="#000000" fill-rule="nonzero">
            <g id="088-etoile-pleine">
                <g id="ICONSET-01">
                    <g id="088-etoile-pleine">
                        <path d="M43.2124847,14.9989598 C43.6426024,15.434824 43.8847842,16.02326 43.8847842,16.6374723 C43.8847842,17.2748851 43.6239611,17.8845376 43.1794788,18.3085586 L35.0370203,26.4506835 C34.8251822,26.6535136 34.6260325,26.8690148 34.4406503,27.0959512 L36.4154463,38.9423366 C36.6193041,39.4950922 36.48692,40.0704217 36.1898919,40.6585913 C35.8838595,41.2305656 35.3589267,41.6539588 34.7351261,41.8319564 C34.1113253,42.0099541 33.4420043,41.9273336 32.9169796,41.623198 L26.8477887,38.4508507 L22.6997411,36.2360008 C22.4492495,36.0959376 22.1867399,35.9791185 21.9155187,35.8868633 L10.9619785,41.6313861 C10.3804033,41.9221737 9.79613824,42.0513673 9.23302672,41.8265035 C8.06352781,41.5160285 7.36746405,40.2103489 7.60232626,39.060757 L8.70482727,32.2959658 L9.54780475,27.5411296 C9.60664402,27.3085377 9.64256136,27.0710496 9.65521794,26.8320597 L0.761619914,18.2035825 C0.404993649,17.9027666 0.186399341,17.4695586 0.156048675,17.0043816 C-0.00500309683,15.84302 0.664270689,14.7212536 1.77031372,14.3147724 C1.84274765,14.2881523 1.91801954,14.2700062 1.99462656,14.2606964 L8.71910615,13.443805 L13.352213,12.7648849 C13.5175988,12.7318677 13.6760424,12.6923517 13.8349234,12.6458394 C13.9916657,12.5999533 13.9512865,12.613505 14.3537162,12.4752927 C14.4143734,12.4544603 14.4677476,12.4364464 14.5160433,12.4209622 L19.848548,1.25857986 C20.2452625,0.578914839 20.9499442,0.136887277 21.8124542,0.0725172619 L22.0058364,0.0758589191 C22.9267519,0.000383369421 23.7877406,0.539233468 24.0846355,1.31532031 L27.1212561,7.38625577 L29.181247,11.6460765 C29.3148555,11.9137795 29.5904427,12.3594463 29.7652556,12.633805 L42.0149007,14.4014405 C42.4787232,14.4293332 42.9113288,14.6452118 43.2124847,14.9989598 Z M41.710421,16.3174842 L41.6809024,16.2847014 C41.6899694,16.2964424 41.6998455,16.3073883 41.710421,16.3174842 Z M28.4187391,14.4602169 C27.6206735,14.3450553 27.4095814,13.5752279 27.6596419,13.0270514 C27.559003,12.8542657 27.461472,12.6787878 27.3862427,12.5280085 L25.3266502,8.26898504 L22.2581723,2.12485713 C22.2441052,2.08865355 22.2079135,2.06600299 22.0875196,2.07251726 L21.8903842,2.06947609 C21.7595301,2.07970467 21.6420016,2.15342708 21.6146256,2.19351108 L15.8282482,14.3138962 C15.4827687,15.0375519 14.6813612,15.0146489 14.2327707,14.6113596 C14.0704597,14.6549347 13.8987573,14.6948988 13.6932528,14.7349266 L8.98501094,15.4258941 L2.38269973,16.2282498 C2.20476355,16.3308 2.10471704,16.5348521 2.13915474,16.7432401 L11.3511263,25.6908246 C11.5331191,25.8673921 11.6412396,26.1065037 11.6536079,26.3597714 C11.6810763,26.9222444 11.6248352,27.4856775 11.5020067,27.9604015 L10.6765487,32.6308323 L9.569196,39.4211393 C9.52722122,39.6272655 9.66622681,39.877526 9.74815185,39.893911 C9.91790587,39.9086003 9.99154058,39.8805624 10.0503037,39.8513654 L21.3454924,33.9274553 C21.5643102,33.8126934 21.8178678,33.7830057 22.0572776,33.844116 C22.6225431,33.9884023 23.1666271,34.2056409 23.6587578,34.4810338 L27.781993,36.6824657 L33.8802029,39.8709308 C33.9729225,39.9244617 34.083389,39.9380976 34.1863427,39.9087204 C34.2892964,39.8793432 34.3759328,39.8094652 34.4153539,39.7363999 C34.4578497,39.6521673 34.4898431,39.5659617 34.5019646,39.5057909 C34.5000958,39.5150678 34.5027954,39.5668571 34.5537728,39.6688118 C34.5091973,39.5796609 34.4782009,39.4843466 34.4618115,39.3860295 L32.3963198,26.9955801 C32.3522496,26.7312123 32.4161457,26.4602185 32.5736758,26.2433849 C32.8961135,25.7995629 33.2576143,25.3854801 33.6383307,25.0212795 L41.781801,16.8781872 C41.8475732,16.8153881 41.8847842,16.7284105 41.8847842,16.6374723 C41.8847842,16.5465342 41.8475732,16.4595566 41.781801,16.3967574 L28.4187391,14.4602169 Z M2.04280325,16.6680473 L2.06593959,16.6881948 C2.05863141,16.6811042 2.05091432,16.6743768 2.04280325,16.6680473 Z" id="Shape"></path>
                    </g>
                </g>
            </g>
        </g>
    </g>
</svg>
